X:15
T:Derwentwater
Z:Jack Campin, http://www.campin.me.uk/
S:Northumbrian Minstrelsy
M:C
L:1/8
K:G
(GA)|B2 d2 c2 B B|A2 G2 A2                       \
                          (GA)|B2 d2 e2 A2 |d4 z2
(GA)|B2 d2 c2 B2 |A2 G2 A2                       \
                          (GA)|B2 A2 d2 F2 |G6 |]

